X: 31730
T: Pat Enright's
R: polka
M: 2/4
K: Gmajor
|:D2 D>D|EG G2|A2 AG|EG A2|
D2 D>D|EG G>B|dB AB|1 G2 GE:|2 G2 Bc||
d>d Bd|eA g>e|dB AG|EG AB|
d>d Bd|eA g>e|dB AB|G2 Bc|
d>d Bd|eA g>e|dB AG|EG A2|
D2 D>D|EG G>B|dB AB|G2 GE||

